X: 189
T: The Installation
%R: jig
B: Chas & Sam Thompson "Twenty Four Country Dances for the Year 1780", London 1780, p.95 #1
F: http://www.vwml.org/browse/browse-collections-dance-tune-books/browse-thompsons1780
Z: 2014 John Chambers <jc:trillian.mit.edu> (added dance description)
M: 6/8
L: 1/8
K: D
% - - - - - - - - - - - - - - - - - - - - - - - - - - - - -
|:\
a2a aec | f2f e3 | agf edc | Bcd cBA |\
a2a aec | f2f e3 | agf edc | BAG A3 :|
|:\
EGB dcB | ceg aec | EGB dcB | edc B2e |\
a2a aec | [f2A2][fA] [e3A3] | agf edc | BAG A3 :|
% - - - - - - - - - - Dance description - - - - - - - - - -
%%begintext align
%%   Turn right hands round Left hands back
%% again .|. Lead down two Cu cast up one :|.
%% Sett 3 & 3 top and bottom then sideways .|:
%% Hands Six quite round :|:
%%endtext

%%sep 1 1 500
%%sep 1 1 500
